svg/u2139.svg

<svg viewBox="0 0 128 128" xmlns="http://www.w3.org/2000/svg">
  <g>
    <path d="M116.46,3.96h-104c-4.42,0-8,3.58-8,8v104c0,4.42,3.58,8,8,8h104c4.42,0,8-3.58,8-8v-104 C124.46,7.54,120.88,3.96,116.46,3.96z" fill="#427687"/>
    <path d="M110.16,3.96h-98.2c-4.13,0.03-7.47,3.37-7.5,7.5v97.9c-0.01,4.14,3.34,7.49,7.48,7.5 c0.01,0,0.01,0,0.02,0h98.1c4.14,0.01,7.49-3.34,7.5-7.48c0-0.01,0-0.01,0-0.02v-97.9c0.09-4.05-3.13-7.41-7.18-7.5 C110.31,3.96,110.23,3.96,110.16,3.96z" fill="#8CAFBF"/>
    <path d="M67.76,108.96h-11.9c-1.32-0.02-2.38-1.08-2.4-2.4v-56.8c0.02-1.32,1.08-2.38,2.4-2.4h11.8 c1.32,0.02,2.38,1.08,2.4,2.4v56.8C70.09,107.86,69.06,108.93,67.76,108.96C67.76,108.96,67.76,108.96,67.76,108.96z" fill="#FFFFFF"/>
    <circle cx="61.76" cy="29.66" r="10.7" fill="#FFFFFF"/>
  </g>
  <path d="M40.16,12.86c0-2.3-1.6-3-10.8-2.7c-7.7,0.3-11.5,1.2-13.8,4 s-2.9,8.5-3,15.3c0,4.8,0,9.3,2.5,9.3c3.4,0,3.4-7.9,6.2-12.3C26.66,17.76,40.16,15.86,40.16,12.86z" opacity="0.5" fill="#B4E1ED" enable-background="new "/>
</svg>

<svg viewBox="0 0 128 128" xmlns="http://www.w3.org/2000/svg">
  <defs/>
  <path d="M116.46,3.96 L12.46,3.96 C8.04,3.96 4.46,7.54 4.46,11.96 L4.46,115.96 C4.46,120.38 8.04,123.96 12.46,123.96 L116.46,123.96 C120.88,123.96 124.46,120.38 124.46,115.96 L124.46,11.96 C124.46,7.54 120.88,3.96 116.46,3.96 Z" fill="#427687"/>
  <path d="M110.16,3.96 L11.96,3.96 C7.83,3.99 4.49,7.33 4.46,11.46 L4.46,109.36 C4.45,113.5 7.8,116.85 11.94,116.86 C11.95,116.86 11.95,116.86 11.96,116.86 L110.06,116.86 C114.2,116.87 117.55,113.52 117.56,109.38 C117.56,109.37 117.56,109.37 117.56,109.36 L117.56,11.46 C117.65,7.41 114.43,4.05 110.38,3.96 C110.31,3.96 110.23,3.96 110.16,3.96 Z" fill="#8CAFBF"/>
  <path d="M67.76,108.96 L55.86,108.96 C54.54,108.94 53.48,107.88 53.46,106.56 L53.46,49.76 C53.48,48.44 54.54,47.38 55.86,47.36 L67.66,47.36 C68.98,47.38 70.04,48.44 70.06,49.76 L70.06,106.56 C70.09,107.86 69.06,108.93 67.76,108.96 C67.76,108.96 67.76,108.96 67.76,108.96 Z" fill="#FFFFFF"/>
  <path d="M72.46,29.66 A10.7 10.7 0 1 1 51.06,29.66 A10.7 10.7 0 1 1 72.46,29.66 Z" fill="#FFFFFF"/>
  <path d="M40.16,12.86 C40.16,10.56 38.56,9.86 29.36,10.16 C21.66,10.46 17.86,11.36 15.56,14.16 C13.26,16.96 12.66,22.66 12.56,29.46 C12.56,34.26 12.56,38.76 15.06,38.76 C18.46,38.76 18.46,30.86 21.26,26.46 C26.66,17.76 40.16,15.86 40.16,12.86 Z" fill="#B4E1ED" opacity="0.5"/>
</svg>
